svgs/thin/flower.svg

<svg xmlns="http://www.w3.org/2000/svg" viewBox="0 0 512 512"><!-- Font Awesome Pro 6.0.0-alpha2 by @fontawesome - https://fontawesome.com License - https://fontawesome.com/license (Commercial License) --><path d="M480 160C480 89.25 422.75 32 352 32C313.5 32 279.5 49.25 256 76.125C232.5 49.25 198.5 32 160 32C89.25 32 32 89.25 32 160C32 198.5 49.25 232.5 76.125 256C49.25 279.5 32 313.5 32 352C32 422.75 89.25 480 160 480C198.5 480 232.5 462.75 256 435.875C279.5 462.75 313.5 480 352 480C422.75 480 480 422.75 480 352C480 313.5 462.75 279.5 435.875 256C462.75 232.5 480 198.5 480 160ZM464 352C464 413.758 413.758 464 352 464C319.658 464 289.844 450.27 268.045 425.344L256 411.566L243.955 425.344C222.158 450.27 192.342 464 160 464C98.244 464 48 413.758 48 352C48 319.66 61.729 289.844 86.658 268.043L100.432 256L86.658 243.957C61.729 222.156 48 192.34 48 160C48 98.242 98.244 48 160 48C192.342 48 222.158 61.73 243.955 86.656L256 100.434L268.045 86.656C289.844 61.73 319.658 48 352 48C413.758 48 464 98.242 464 160C464 192.34 450.271 222.156 425.344 243.957L411.568 256L425.344 268.043C450.271 289.844 464 319.66 464 352ZM256 176C211.875 176 176 211.875 176 256S211.875 336 256 336S336 300.125 336 256S300.125 176 256 176ZM256 320C220.711 320 192 291.289 192 256S220.711 192 256 192C291.291 192 320 220.711 320 256S291.291 320 256 320Z"/></svg>

<svg xmlns="http://www.w3.org/2000/svg" viewBox="0 0 512 512"><!--! Font Awesome Pro 6.3.0 by @fontawesome - https://fontawesome.com License - https://fontawesome.com/license (Commercial License) Copyright 2023 Fonticons, Inc. --><path d="M480 160c0-70.75-57.25-128-128-128c-38.5 0-72.5 17.25-96 44.12C232.5 49.25 198.5 32 160 32C89.25 32 32 89.25 32 160c0 38.5 17.25 72.5 44.13 96C49.25 279.5 32 313.5 32 352c0 70.75 57.25 128 128 128c38.5 0 72.5-17.25 96-44.13C279.5 462.8 313.5 480 352 480c70.75 0 128-57.25 128-128c0-38.5-17.25-72.5-44.13-96C462.8 232.5 480 198.5 480 160zM464 352c0 61.76-50.24 112-112 112c-32.34 0-62.16-13.73-83.96-38.66L256 411.6l-12.04 13.78C222.2 450.3 192.3 464 160 464c-61.76 0-112-50.24-112-112c0-32.34 13.73-62.16 38.66-83.96L100.4 256L86.66 243.1C61.73 222.2 48 192.3 48 160c0-61.76 50.24-112 112-112c32.34 0 62.16 13.73 83.96 38.66L256 100.4l12.04-13.78C289.8 61.73 319.7 48 352 48c61.76 0 112 50.24 112 112c0 32.34-13.73 62.16-38.66 83.96L411.6 256l13.78 12.04C450.3 289.8 464 319.7 464 352zM256 176C211.9 176 176 211.9 176 256s35.88 80 80 80s80-35.88 80-80S300.1 176 256 176zM256 320c-35.29 0-64-28.71-64-64s28.71-64 64-64c35.29 0 64 28.71 64 64S291.3 320 256 320z"/></svg>
